src/assets/icons/shapes,simple,filled-pentagon.svg

<svg width="48" height="48" viewBox="0 0 48 48" fill="none" xmlns="http://www.w3.org/2000/svg">
<rect opacity="0.2" x="5" y="5" width="38" height="38" rx="4" fill="black"/>
<path d="M21.6489 11.7082C22.7831 10.8842 23.3502 10.4721 24 10.4721C24.6498 10.4721 25.2169 10.8842 26.3511 11.7082L34.9636 17.9656C36.0979 18.7896 36.665 19.2016 36.8658 19.8197C37.0666 20.4377 36.85 21.1044 36.4167 22.4377L33.127 32.5623C32.6938 33.8956 32.4772 34.5623 31.9515 34.9443C31.4257 35.3262 30.7248 35.3262 29.3228 35.3262H18.6772C17.2752 35.3262 16.5743 35.3262 16.0485 34.9443C15.5228 34.5623 15.3062 33.8956 14.873 32.5623L11.5833 22.4377C11.15 21.1044 10.9334 20.4377 11.1342 19.8197C11.335 19.2016 11.9021 18.7896 13.0363 17.9656L21.6489 11.7082Z" fill="black"/>
</svg>

<svg xmlns="http://www.w3.org/2000/svg" width="48" height="48" fill="none" viewBox="0 0 48 48">
  <rect width="38" height="38" x="5" y="5" fill="#000" opacity=".2" rx="4"/>
  <path fill="#000" d="M21.649 11.708c1.134-.824 1.701-1.236 2.351-1.236.65 0 1.217.412 2.351 1.236l8.613 6.258c1.134.824 1.701 1.236 1.902 1.854.2.618-.016 1.284-.45 2.618l-3.289 10.124c-.433 1.334-.65 2-1.176 2.382-.525.382-1.226.382-2.628.382H18.677c-1.402 0-2.103 0-2.628-.382-.526-.382-.743-1.048-1.176-2.382l-3.29-10.124c-.433-1.334-.65-2-.449-2.618.201-.618.768-1.03 1.902-1.854l8.613-6.258z"/>
</svg>
